X:88
T:The Pub of the Year
C:Neil Smith
R:jig
M:6/8
L:1/8
K:D
A |: dcd efg | afd A2d | efg agf | efg cBA |
Bcd efg | afd A2d | Bgg A2f | ABc d2A :|
e2e cBA | fag fed | g2e f2d | efg cBA |1
e2e c2A | fag fed | g2e f2d | ABc d2A :|2
Bcd efg | afd A2d | Bgg A2f | ABc d2 |]
